!!!COM: Palestrina, Giovanni Perluigi da
!!!OPR: Missa Eripe me de inimicis
!!!OMD: Credo
!!!OTL: Et in Spiritum
**kern	**kern	**kern	**kern	**kern
*Ibass	*Itenor	*Itenor	*Icalto	*Icant
!Bassus	!Tenor 2	!Tenor 1	!Altus	!Cantus
*clefF4	*clefGv2	*clefGv2	*clefG2	*clefG2
*k[]	*k[]	*k[]	*k[]	*k[]
*D:dor	*D:dor	*D:dor	*D:dor	*D:dor
*M4/2	*M4/2	*M4/2	*M4/2	*M4/2
=139	=139	=139	=139	=139
0r	1.e	0r	0r	1r
.	.	.	.	[1ee
.	2e	.	.	.
=140	=140	=140	=140	=140
1.A	2c	0r	1r	2ee]
.	2c	.	.	2ee
.	1A	.	[1a	2cc
2A	.	.	.	2cc
=141	=141	=141	=141	=141
2F	1c	2r	2a]	2a
2F	.	1a	2a	2.ff
[1D	2d	.	2f	.
.	.	.	.	4ee
.	[2f	2a	2f	4dd
.	.	.	.	4cc#
=142	=142	=142	=142	=142
1D]	4f]	2f	2d	1dd
.	4e	.	.	.
.	2.d	2f	1a	.
1A	.	2e	.	1ee
.	4c#	.	.	.
.	4c#	[2a	2e	.
.	8B	.	.	.
.	8c#	.	.	.
=143	=143	=143	=143	=143
1D	2d	2a]	2f	2dd
.	2d	2a	2f	2dd
[1A	4e	2.a	1e	4cc
.	4d	.	.	4b
.	4c	.	.	4cc
.	4B	4a	.	4dd
=144	=144	=144	=144	=144
2A]	2.c	1e	2.a	1ee
2A	.	.	.	.
.	8B	.	4a	.
.	8A	.	.	.
1E	1B	2.e	2g	2r
.	.	.	2b	[2ee
.	.	4e	.	.
=145	=145	=145	=145	=145
0r	0r	2c	2cc	2ee]
.	.	2d	2.b	2dd
.	.	1f	.	2cc
.	.	.	4a	.
.	.	.	[2a	2a
=146	=146	=146	=146	=146
1r	1r	1e	2a]	1b
.	.	.	2g	.
2r	2.e	4A	[1cc	1a
.	.	4B	.	.
[2A	.	4c	.	.
.	4e	4d	.	.
=147	=147	=147	=147	=147
4A]	2c	4e	2cc]	0r
4A	.	4f	.	.
2G	2d	2g	2b	.
2A	2f	2.c	2a	.
[2c	[2e	.	2g	.
.	.	4B	.	.
=148	=148	=148	=148	=148
4c]	4e]	1A	4a	2.ee
4B	4d	.	4b	.
1A	4c	.	1cc	.
.	4B	.	.	4ee
.	2A	1r	.	2cc
2G	2B	.	[2b	2dd
=149	=149	=149	=149	=149
2F	2c	1r	4b]	1ff
.	.	.	4a	.
2D	2d	.	1a	.
1E	1B	2r	.	2ee
.	.	2e	2g#	2ee
=150	=150	=150	=150	=150
1r	1r	2f	1a	2cc
.	.	2d	.	2ff
1A	2r	1c#	2r	1ee
.	2e	.	2a	.
=151	=151	=151	=151	=151
2d	2f	0r	2a	0r
2B-	2d	.	2g	.
2A	2f	.	2a	.
2c	[2e	.	2g	.
=152	=152	=152	=152	=152
1d	2e]	1r	1f	1r
.	1d	.	.	.
1A	.	2r	2e	2r
.	2c#	2e	2a	2ee
=153	=153	=153	=153	=153
0r	0r	2f	2a	2cc
.	.	2d	2b	2dd
.	.	2c	2cc	2ee
.	.	2c	2cc	2ee
=154	=154	=154	=154	=154
0r	1r	2G	2b	2dd
.	.	2A	2a	2cc
.	2r	1e	1g#	1b
.	[2e	.	.	.
=155	=155	=155	=155	=155
2.A	4e]	2.c	0r	2.a
.	4e	.	.	.
.	2f	.	.	.
4A	.	4c	.	4a
2G	2g	2d	.	2b
2F	[2a	[2f	.	2cc
=156	=156	=156	=156	=156
1B-	4a]	2f]	0r	1dd
.	8g	.	.	.
.	8f	.	.	.
.	2g	4e	.	.
.	.	4d	.	.
1A	2a	1e	.	1cc#
.	2e	.	.	.
=157	=157	=157	=157	=157
0r	2d	2f	1a	2r
.	2c	2d	.	2ee
.	2.f	1a	2r	2dd
.	.	.	2a	[2cc
.	8e	.	.	.
.	8f	.	.	.
=158	=158	=158	=158	=158
0r	2e	0r	2g	2cc]
.	2d	.	2f	2ff
.	1g	.	2b-	4ee
.	.	.	.	4dd
.	.	.	2b-	[2dd
=159	=159	=159	=159	=159
1A	2.e	0r	1a	4dd]
.	.	.	.	4cc
.	.	.	.	4cc
.	4f	.	.	8b-
.	.	.	.	8a
2G	2g	.	2d	2b-
2F	2c	.	[2f	[2a
=160	=160	=160	=160	=160
2B-	1d	2r	2f]	2a]
2B-	.	2d	4e	2g
.	.	.	4d	.
2.A	2r	2d	1e	[1a
.	2e	2c	.	.
4G	.	.	.	.
=161	=161	=161	=161	=161
4F	2d	2f	1r	0a]
4D	.	.	.	.
2A	2c	1e	.	.
4D	2f	.	2r	.
4E	.	.	.	.
4F	2f	[2d	[2a	.
4G	.	.	.	.
=162	=162	=162	=162	=162
1A	1e	4d]	2a]	2r
.	.	8c	.	.
.	.	8B	.	.
.	.	2c#	2a	1a
2r	2d	2d	2.f#	.
[2D	[2a	[2d	.	2a
.	.	.	4g	.
=163	=163	=163	=163	=163
2D]	2a]	2d]	2a	1.dd
2D	2f#	2d	2a	.
2G	2g	2d	1b-	.
2G	2g	2G	.	2dd
=164	=164	=164	=164	=164
2F	2c	2A	1.a	1ff
2D	2d	1d	.	.
1A	1e	.	.	2ee
.	.	2c#	2a	2ee
=165	=165	=165	=165	=165
2.D	1.f	1d	1a	1dd
4E	.	.	.	.
4F	.	2A	1a	1cc
4G	.	.	.	.
4A	4e	2e	.	.
4B	4d	.	.	.
=166	=166	=166	=166	=166
2c	2e	2.a	0r	2r
2d	4f	.	.	2a
.	4e	4a	.	.
1B-	4d	1g	.	2.dd
.	4c	.	.	.
.	2d	.	.	.
.	.	.	.	4dd
=167	=167	=167	=167	=167
1A	2e	1a	0r	1cc
.	2A	.	.	.
1r	2.d	1f	.	2dd
.	.	.	.	2ff
.	4d	.	.	.
=168	=168	=168	=168	=168
0r	1c	2a	1r	2ff
.	.	2g	.	2ee
.	2d	2.f	2r	1dd
.	2f	.	2d	.
.	.	4e	.	.
=169	=169	=169	=169	=169
0r	2f	2d	2.a	2r
.	2e	2c	.	2a
.	.	.	4a	.
.	2d	1B-	2g	2.dd
.	2d	.	2g	.
.	.	.	.	4dd
=170	=170	=170	=170	=170
1r	2e	1A	0a	2cc
.	2e	.	.	2cc
1D	2.f	2.d	.	2dd
.	.	.	.	2ff
.	4g	4d	.	.
=171	=171	=171	=171	=171
2.A	1a	2c	2r	4ee
.	.	.	.	4dd
.	.	2c	2cc	4ee
4A	.	.	.	4ff
2G	1r	2d	2cc	2gg
2G	.	2d	2b-	2gg
=172	=172	=172	=172	=172
2A	0r	2f	2a	2.cc
2c	.	4e	4g	.
.	.	4d	4f	4dd
2c	.	2c	1g	2ee
2B-	.	2d	.	2dd
=173	=173	=173	=173	=173
1A	2r	1e	2.a	2.cc
.	2a	.	.	.
.	.	.	4b	4dd
1r	2a	1r	[1cc	2ee
.	4g	.	.	[2ff
.	4f	.	.	.
=174	=174	=174	=174	=174
1r	2g	1c	0cc]	2ff]
.	2g	.	.	2ee
1F	1a	2.f	.	[1ff
.	.	4e	.	.
=175	=175	=175	=175	=175
2.B-	2r	2d	1f	1ff]
.	2d	2f	.	.
4A	.	.	.	.
2G	2g	2e	2.b-	1r
2B-	2f	[2d	.	.
.	.	.	4a	.
=176	=176	=176	=176	=176
2B-	2d	2d]	2g	0r
2A	2f	2c	2f	.
2G	2e	2B-	2g	.
2F	[2d	2A	2a	.
=177	=177	=177	=177	=177
1E	2d]	1e	1g	2r
.	2c#	.	.	2ee
[1D	[1d	2A	4f	2.ff
.	.	.	4e	.
.	.	2d	4f	.
.	.	.	4g	4ee
=178	=178	=178	=178	=178
1D]	1d]	2f	2a	2dd
.	.	2e	4f	2ff
.	.	.	4g	.
1r	1r	2d	4a	2ff
.	.	.	4b	.
.	.	2c	2cc	2ee
=179	=179	=179	=179	=179
0r	0r	2d	2b	2.dd
.	.	2d	1a	.
.	.	.	.	4cc
.	.	1e	.	1b
.	.	.	2g#	.
=180	=180	=180	=180	=180
2r	2.e	2A	1a	1a
2.A	.	2.c	.	.
.	4e	.	.	.
.	2f	.	1r	1r
4A	.	4c	.	.
2B-	2d	2d	.	.
=181	=181	=181	=181	=181
2G	1e	2B	1r	2r
1A	.	2c	.	2.ee
.	2c	1A	2r	.
.	.	.	.	4ee
2D	2d	.	[2a	[2ff
=182	=182	=182	=182	=182
2F	2A	1r	4a]	2ff]
.	.	.	4a	.
2G	2.d	.	2b-	2dd
1E	.	2.e	1g	2ee
.	4c#	.	.	.
.	4c#	.	.	2gg
.	4B	4e	.	.
=183	=183	=183	=183	=183
1D	2d	2f	2.a	2ff
.	1a	2d	.	2ff
.	.	.	4b	.
1r	.	1e	2cc	2.ee
.	2g	.	2b	.
.	.	.	.	4dd
=184	=184	=184	=184	=184
0r	2.e	1A	2a	4cc
.	.	.	.	4b
.	.	.	2.cc	4a
.	4d	.	.	4g
.	2e	2c	.	1a
.	.	.	4b	.
.	2f	2d	[2a	.
=185	=185	=185	=185	=185
2r	1d	1B-	2a]	1dd
1d	.	.	2g	.
.	2f	2A	1a	1r
2c	2e	2a	.	.
=186	=186	=186	=186	=186
2B-	2d	2g	1r	0r
2A	2c	1f	.	.
1G	2d	.	[1b-	.
.	2e	2e	.	.
=187	=187	=187	=187	=187
1F	1f	2d	2b-]	1r
.	.	4c	2a	.
.	.	4d	.	.
1r	2r	4e	2g	2r
.	.	4c	.	.
.	[2a	2d	2f	[2ff
=188	=188	=188	=188	=188
0r	2a]	1c	2.cc	2ff]
.	2g	.	.	2ee
.	.	.	4b-	.
.	2f	1r	2a	2dd
.	2e	.	2g	2cc#
=189	=189	=189	=189	=189
2r	1d	2r	1f	2dd
1f	.	1a	.	2a
.	1c	.	1g	1cc
2e	.	2g	.	.
=190	=190	=190	=190	=190
2d	2r	2f	1a	1r
2c	1a	2e	.	.
1B-	.	2d	2r	2r
.	2g	2d	2d	[2dd
=191	=191	=191	=191	=191
1A	2f	2r	2a	2dd]
.	2e	2e	2.a	2cc#
1r	1d	1f	.	4dd
.	.	.	4g	4ee
.	.	.	4a	[2ff
.	.	.	4b	.
=192	=192	=192	=192	=192
0r	1c	1g	1cc	4ff]
.	.	.	.	8ee
.	.	.	.	8dd
.	.	.	.	2ee
.	2r	1f	2a	1ff
.	2d	.	2a	.
=193	=193	=193	=193	=193
1G	1g	0r	1b-	1dd
1c	2e	.	2g	1ee
.	2e	.	2a	.
=194	=194	=194	=194	=194
2A	1f	0r	2a	2cc
2B-	.	.	2f	2dd
2B-	2d	.	2.g	2dd
2G	[2e	.	.	2b
.	.	.	4f	.
=195	=195	=195	=195	=195
2.A	4e]	0r	2e	2.cc
.	4d	.	.	.
.	2c	.	2.f	.
4G	.	.	.	4b-
2F	1d	.	.	2a
.	.	.	4e	.
2G	.	.	[2d	2b-
=196	=196	=196	=196	=196
1E	1e	2r	4d]	1g
.	.	.	8c	.
.	.	.	8B	.
.	.	2e	2c#	.
1D	2A	1f	1d	2r
.	[2a	.	.	2dd
=197	=197	=197	=197	=197
0r	4a]	2d	2r	2dd
.	4f	.	.	.
.	2g	2e	2g	2b
.	1c	2e	2g	2.cc
.	.	2c	2e	.
.	.	.	.	4b
=198	=198	=198	=198	=198
0r	0r	2.d	2.f	2a
.	.	.	.	2.dd
.	.	4c	4e	.
.	.	2B	2d	.
.	.	.	.	4b
.	.	2c	[2g	[2ee
=199	=199	=199	=199	=199
1r	2r	1d	4g]	4ee]
.	.	.	4f	4dd
.	2d	.	4f	1dd
.	.	.	8e	.
.	.	.	8d	.
1A	[1a	2r	1e	.
.	.	2e	.	2cc#
=200	=200	=200	=200	=200
1d	2a]	2f	1d	1dd
.	2f	1d	.	.
2B	2g	.	2r	1r
2c	2g	2e	[2g	.
=201	=201	=201	=201	=201
2c	2e	2c	4g]	0r
.	.	.	8f	.
.	.	.	8g	.
2A	2.f	2c	2a	.
2.B-	.	2d	2f	.
.	4e	.	.	.
.	[2d	2f	[2b-	.
4A	.	.	.	.
=202	=202	=202	=202	=202
2G	2d]	1e	2b-]	2r
2A	2c#	.	2a	2ee
2D	[1d	2.d	2r	1ff
2d	.	.	2a	.
.	.	4e	.	.
=203	=203	=203	=203	=203
2B-	1d]	2f	1b-	2dd
2G	.	1g	.	2gg
4c	2r	.	2g	2ee
4B-	.	.	.	.
4A	2a	[2c	2cc	2ee
4G	.	.	.	.
=204	=204	=204	=204	=204
2F	2a	4c]	2a	2.ff
.	.	4A	.	.
2D	2f	2.d	2a	.
.	.	.	.	4ee
1G	2.g	.	2.b-	2dd
.	.	4G	.	.
.	.	[2g	.	[2ee
.	4f	.	4b-	.
=205	=205	=205	=205	=205
0A	2e	2g]	1a	2ee]
.	2.a	2f	.	1dd
.	.	1e	1a	.
.	4g	.	.	.
.	2e	.	.	2cc#
=206	=206	=206	=206	=206
[0D	[0f#	[0d	[0a	[0dd
=207	=207	=207	=207	=207
0D]	0f#]	0d]	0a]	0dd]
==	==	==	==	==
*-	*-	*-	*-	*-
!!!CDT: 1525/^1526/-1594/2/2
!!!OCY: Italia
!!!AGN: Mass (Parody)
!!!AST: renaissance, vocal
!!!ASW: Motet 1559 (Maillard)
!!!PWK: Masses, Book 4
!!!RNB: Cadence finals: A
!!!YOR: Le Opere Complete, v. 10, p. 79
!!!YOO: Rome, Italy: Fratelli Scalera
!!!END: 1992//
!!!EED: John Miller
!!!YEC: Copyright 2000, John Miller
!!!YEN: United States of America
!!!YEM: Rights to all derivative electronic formats reserved.
!!!YEM: Refer to licensing agreement for further details.
!!!YEM: This file must be accompanied by the licensing agreement.
!!!YEM: A copy of the licensing agreement may be found at http://www.music-cog.ohio-state.edu/HumdrumDatabases/Palestrina/license.txt
!!!EMD: converted to Humdrum by Bret Aarden
